img/svg/logo-icon.svg

<svg width="230" height="40" viewBox="0 0 230 40" fill="none" xmlns="http://www.w3.org/2000/svg">
<ellipse cx="30.2109" cy="31.882" rx="7.96771" ry="7.80783" fill="white"/>
<path d="M25.2311 12.3624C25.2311 19.19 19.5829 24.7248 12.6155 24.7248C5.64817 24.7248 0 19.19 0 12.3624C0 5.53483 5.64817 0 12.6155 0C19.5829 0 25.2311 5.53483 25.2311 12.3624ZM5.18793 12.3624C5.18793 16.3822 8.51338 19.641 12.6155 19.641C16.7177 19.641 20.0432 16.3822 20.0432 12.3624C20.0432 8.34255 16.7177 5.08382 12.6155 5.08382C8.51338 5.08382 5.18793 8.34255 5.18793 12.3624Z" fill="#4096FC"/>
<path d="M60.4215 12.3624C60.4215 19.19 54.7733 24.7248 47.806 24.7248C40.8386 24.7248 35.1904 19.19 35.1904 12.3624C35.1904 5.53483 40.8386 0 47.806 0C54.7733 0 60.4215 5.53483 60.4215 12.3624ZM40.3784 12.3624C40.3784 16.3822 43.7038 19.641 47.806 19.641C51.9081 19.641 55.2336 16.3822 55.2336 12.3624C55.2336 8.34255 51.9081 5.08382 47.806 5.08382C43.7038 5.08382 40.3784 8.34255 40.3784 12.3624Z" fill="#4096FC"/>
<path d="M35.689 14.6397V9.27179C35.689 9.27179 33.5311 7.64516 30.1282 7.64516C26.7253 7.64516 24.5674 9.27179 24.5674 9.27179V14.6397C24.5674 14.6397 26.8913 12.8504 30.1282 12.8504C33.3651 12.8504 35.689 14.6397 35.689 14.6397Z" fill="#4096FC"/>
<path d="M88.6455 26.9279H90.3951L84.7347 19.6666L90.0863 12.8087H88.4397L83.5614 19.1422H80.2681V12.8087H78.7861V26.9279H80.2681V20.4532H83.5614L88.6455 26.9279Z" fill="white"/>
<path d="M98.7464 12.8087H93.3536V26.9279H94.8768V22.4703H98.7464C102.41 22.4703 104.633 20.6549 104.633 17.6496C104.633 14.6241 102.41 12.8087 98.7464 12.8087ZM98.7053 21.1592H94.8768V14.0996H98.7053C101.587 14.0996 103.11 15.3905 103.11 17.6496C103.11 19.8683 101.587 21.1592 98.7053 21.1592Z" fill="white"/>
<path d="M114.903 27.0489C119.226 27.0489 122.458 24.0032 122.458 19.8683C122.458 15.7334 119.226 12.6877 114.903 12.6877C110.54 12.6877 107.329 15.7536 107.329 19.8683C107.329 23.983 110.54 27.0489 114.903 27.0489ZM114.903 25.7177C111.425 25.7177 108.831 23.2367 108.831 19.8683C108.831 16.4999 111.425 14.0189 114.903 14.0189C118.361 14.0189 120.934 16.4999 120.934 19.8683C120.934 23.2367 118.361 25.7177 114.903 25.7177Z" fill="white"/>
<path d="M135.936 12.8087H124.306V14.0996H129.37V26.9279H130.872V14.0996H135.936V12.8087Z" fill="white"/>
<path d="M145.244 27.2909C147.756 27.2909 149.834 26.4035 151.193 24.7697L149.052 22.8333C148.085 23.9427 146.87 24.5075 145.43 24.5075C142.733 24.5075 140.819 22.6518 140.819 19.9893C140.819 17.3269 142.733 15.4712 145.43 15.4712C146.87 15.4712 148.085 16.036 149.052 17.1252L151.193 15.1888C149.834 13.5752 147.756 12.6877 145.265 12.6877C140.778 12.6877 137.443 15.7334 137.443 19.9893C137.443 24.2452 140.778 27.2909 145.244 27.2909Z" fill="#4096FC"/>
<path d="M157.298 24.4268V21.1592H163.987V18.6178H157.298V15.5519H164.872V12.9298H153.984V27.0489H165.14V24.4268H157.298Z" fill="#4096FC"/>
<path d="M174.687 12.9298H168.451V27.0489H171.785V23.1561H174.687C178.537 23.1561 180.945 21.1995 180.945 18.053C180.945 14.8863 178.537 12.9298 174.687 12.9298ZM174.502 20.4936H171.785V15.5922H174.502C176.54 15.5922 177.569 16.4999 177.569 18.053C177.569 19.5859 176.54 20.4936 174.502 20.4936Z" fill="#4096FC"/>
<path d="M193.745 19.6868C195.021 19.0817 195.783 18.0127 195.783 16.5806C195.783 14.2408 193.807 12.9298 190.472 12.9298H183.762V27.0489H190.863C194.506 27.0489 196.462 25.5361 196.462 23.0754C196.462 21.3609 195.494 20.191 193.745 19.6868ZM187.076 15.3502H190.184C191.625 15.3502 192.386 15.9553 192.386 17.0646C192.386 18.1942 191.625 18.7791 190.184 18.7791H187.076V15.3502ZM190.74 24.6285H187.076V21.0584H190.74C192.283 21.0584 193.086 21.6231 193.086 22.8132C193.086 24.0435 192.283 24.6285 190.74 24.6285Z" fill="#4096FC"/>
<path d="M199.716 27.0489H202.866L209.74 17.8715V27.0489H213.034V12.9298H209.905L203.03 22.1274V12.9298H199.716V27.0489Z" fill="#4096FC"/>
<path d="M224.052 27.2909C226.563 27.2909 228.642 26.4035 230 24.7697L227.86 22.8333C226.892 23.9427 225.678 24.5075 224.237 24.5075C221.541 24.5075 219.626 22.6518 219.626 19.9893C219.626 17.3269 221.541 15.4712 224.237 15.4712C225.678 15.4712 226.892 16.036 227.86 17.1252L230 15.1888C228.642 13.5752 226.563 12.6877 224.072 12.6877C219.585 12.6877 216.251 15.7334 216.251 19.9893C216.251 24.2452 219.585 27.2909 224.052 27.2909Z" fill="#4096FC"/>
</svg>

<svg width="230" height="40" viewBox="0 0 230 40" fill="none" xmlns="http://www.w3.org/2000/svg"><ellipse cx="30.211" cy="31.882" rx="7.968" ry="7.808" fill="#fff"/><path d="M25.231 12.362c0 6.828-5.648 12.363-12.616 12.363C5.649 24.725 0 19.19 0 12.362 0 5.535 5.648 0 12.616 0 19.582 0 25.23 5.535 25.23 12.362zm-20.043 0c0 4.02 3.325 7.279 7.428 7.279 4.102 0 7.427-3.259 7.427-7.279s-3.325-7.278-7.427-7.278c-4.103 0-7.428 3.259-7.428 7.278zm55.234 0c0 6.828-5.649 12.363-12.616 12.363S35.19 19.19 35.19 12.362C35.19 5.535 40.84 0 47.806 0s12.616 5.535 12.616 12.362zm-20.044 0c0 4.02 3.326 7.279 7.428 7.279s7.428-3.259 7.428-7.279-3.326-7.278-7.428-7.278-7.428 3.259-7.428 7.278z" fill="#4096FC"/><path d="M35.689 14.64V9.272s-2.158-1.627-5.56-1.627c-3.404 0-5.562 1.627-5.562 1.627v5.368s2.324-1.79 5.561-1.79 5.561 1.79 5.561 1.79z" fill="#4096FC"/><path d="M88.645 26.928h1.75l-5.66-7.261 5.351-6.858H88.44l-4.879 6.333h-3.293V12.81h-1.482v14.119h1.482v-6.475h3.293l5.084 6.475zm10.101-14.119h-5.392v14.119h1.523V22.47h3.87c3.663 0 5.886-1.815 5.886-4.82 0-3.026-2.223-4.841-5.887-4.841zm-.04 8.35h-3.83V14.1h3.83c2.881 0 4.404 1.291 4.404 3.55 0 2.22-1.523 3.51-4.405 3.51zm16.197 5.89c4.323 0 7.555-3.046 7.555-7.18 0-4.136-3.232-7.181-7.555-7.181-4.363 0-7.574 3.066-7.574 7.18 0 4.115 3.211 7.18 7.574 7.18zm0-1.331c-3.478 0-6.072-2.481-6.072-5.85 0-3.368 2.594-5.85 6.072-5.85 3.458 0 6.031 2.482 6.031 5.85 0 3.369-2.573 5.85-6.031 5.85zm21.033-12.909h-11.63v1.29h5.064v12.829h1.502V14.1h5.064v-1.291z" fill="#fff"/><path d="M145.244 27.29c2.512 0 4.59-.886 5.949-2.52l-2.141-1.937c-.967 1.11-2.182 1.675-3.622 1.675-2.697 0-4.611-1.856-4.611-4.519 0-2.662 1.914-4.518 4.611-4.518 1.44 0 2.655.565 3.622 1.654l2.141-1.936c-1.359-1.614-3.437-2.501-5.928-2.501-4.487 0-7.822 3.045-7.822 7.301s3.335 7.302 7.801 7.302zm12.054-2.863v-3.268h6.689v-2.541h-6.689v-3.066h7.574V12.93h-10.888v14.119h11.156v-2.622h-7.842zm17.389-11.497h-6.236v14.119h3.334v-3.893h2.902c3.85 0 6.258-1.956 6.258-5.103 0-3.167-2.408-5.123-6.258-5.123zm-.185 7.564h-2.717v-4.902h2.717c2.038 0 3.067.908 3.067 2.461 0 1.533-1.029 2.44-3.067 2.44zm19.243-.807c1.276-.605 2.038-1.674 2.038-3.106 0-2.34-1.976-3.651-5.311-3.651h-6.71v14.119h7.101c3.643 0 5.599-1.513 5.599-3.974 0-1.714-.968-2.884-2.717-3.388zm-6.669-4.337h3.108c1.441 0 2.202.605 2.202 1.715 0 1.13-.761 1.714-2.202 1.714h-3.108V15.35zm3.664 9.278h-3.664v-3.57h3.664c1.543 0 2.346.565 2.346 1.755 0 1.23-.803 1.816-2.346 1.816zm8.976 2.421h3.15l6.874-9.177v9.177h3.294v-14.12h-3.129l-6.875 9.198V12.93h-3.314v14.119zm24.336.241c2.511 0 4.59-.886 5.948-2.52l-2.14-1.937c-.968 1.11-2.182 1.675-3.623 1.675-2.696 0-4.611-1.856-4.611-4.519 0-2.662 1.915-4.518 4.611-4.518 1.441 0 2.655.565 3.623 1.654L230 15.19c-1.358-1.614-3.437-2.501-5.928-2.501-4.487 0-7.821 3.045-7.821 7.301s3.334 7.302 7.801 7.302z" fill="#4096FC"/></svg>
